img/social-links/social-links_githab.svg

<svg width="30" height="31" viewBox="0 0 30 31" fill="none" xmlns="http://www.w3.org/2000/svg">
<path d="M15 0.756714C11.0218 0.756714 7.20644 2.33707 4.3934 5.15011C1.58035 7.96316 0 11.7785 0 15.7567C0 19.735 1.58035 23.5503 4.3934 26.3633C7.20644 29.1764 11.0218 30.7567 15 30.7567C18.9782 30.7567 22.7936 29.1764 25.6066 26.3633C28.4196 23.5503 30 19.735 30 15.7567C30 11.7785 28.4196 7.96316 25.6066 5.15011C22.7936 2.33707 18.9782 0.756714 15 0.756714V0.756714ZM18.9538 27.9855H18.8375C18.7502 27.9904 18.6628 27.9774 18.5807 27.9473C18.4985 27.9172 18.4235 27.8707 18.36 27.8105C18.3014 27.7485 18.2557 27.6754 18.2256 27.5956C18.1956 27.5158 18.1818 27.4307 18.185 27.3455V25.588C18.1925 25.0042 18.1975 24.413 18.1975 23.818C18.1955 23.3829 18.1319 22.9503 18.0087 22.533C17.8921 22.1111 17.657 21.7316 17.3312 21.4392C18.2025 21.3551 19.059 21.1572 19.8787 20.8505C20.5703 20.5875 21.1958 20.1762 21.7112 19.6455C22.22 19.1117 22.5987 18.4667 22.8175 17.763C23.0836 16.9011 23.2102 16.0023 23.1925 15.1005C23.1974 14.4708 23.0872 13.8456 22.8675 13.2555C22.6442 12.6607 22.3066 12.1154 21.8738 11.6505C21.9672 11.4159 22.0351 11.172 22.0762 10.923C22.1175 10.673 22.1388 10.4205 22.1388 10.168C22.1388 9.84296 22.1013 9.51796 22.0263 9.20171C21.9581 8.87734 21.8658 8.55854 21.75 8.24796C21.7058 8.23072 21.6587 8.22223 21.6112 8.22296H21.4738C21.1863 8.22546 20.9037 8.27296 20.6312 8.36171C20.3311 8.44933 20.0374 8.55793 19.7525 8.68671C19.4691 8.81373 19.1933 8.95688 18.9262 9.11546C18.6575 9.27421 18.42 9.42671 18.21 9.56796C16.1072 8.98187 13.8841 8.98187 11.7813 9.56796C11.5467 9.41118 11.3083 9.2603 11.0662 9.11546C10.7955 8.95556 10.5149 8.81278 10.2262 8.68796C9.94208 8.55491 9.64731 8.44578 9.345 8.36171C9.07787 8.27347 8.7988 8.22667 8.5175 8.22296H8.38C8.33298 8.2223 8.28628 8.23079 8.2425 8.24796C8.12508 8.55897 8.02902 8.87763 7.955 9.20171C7.8875 9.51921 7.855 9.84296 7.85375 10.168C7.85375 10.4205 7.875 10.673 7.9175 10.923C7.95875 11.1717 8.025 11.4155 8.1175 11.6505C7.68574 12.1161 7.3494 12.6618 7.1275 13.2567C6.9066 13.8466 6.79519 14.4718 6.79875 15.1017C6.78127 15.9987 6.90443 16.8929 7.16375 17.7517C7.39 18.4555 7.7675 19.1017 8.26875 19.6467C8.7875 20.1742 9.4125 20.5842 10.1013 20.8517C10.9175 21.1642 11.7725 21.3642 12.6425 21.4467C12.3996 21.6669 12.2069 21.9367 12.0775 22.238C11.9544 22.5359 11.8704 22.8485 11.8275 23.168C11.3689 23.3876 10.8673 23.5028 10.3587 23.5055C9.88651 23.5244 9.42044 23.3931 9.0275 23.1305C8.65055 22.8511 8.33132 22.5013 8.0875 22.1005C7.97838 21.9321 7.85635 21.7724 7.7225 21.623C7.5813 21.4658 7.42561 21.3222 7.2575 21.1942C7.0918 21.0704 6.91016 20.9695 6.7175 20.8942C6.52794 20.8111 6.32323 20.7681 6.11625 20.768C6.06625 20.7692 6.01625 20.7742 5.96625 20.7805C5.89797 20.7802 5.82993 20.7886 5.76375 20.8055C5.70559 20.8207 5.65057 20.8461 5.60125 20.8805C5.57883 20.8928 5.56007 20.9109 5.5469 20.9329C5.53373 20.9548 5.5266 20.9799 5.52625 21.0055C5.5315 21.0656 5.54989 21.1239 5.58013 21.1762C5.61037 21.2284 5.65172 21.2734 5.70125 21.308C5.8175 21.4005 5.91375 21.4717 5.99125 21.5217L6.02875 21.548C6.195 21.6767 6.355 21.8155 6.50625 21.9642C6.64625 22.0867 6.7725 22.2255 6.88125 22.3767C6.99375 22.5255 7.09125 22.6842 7.17 22.853C7.26125 23.0205 7.3575 23.213 7.45875 23.4317C7.69375 24.0242 8.11125 24.5255 8.65125 24.863C9.2175 25.1667 9.8525 25.318 10.4963 25.3017C10.7138 25.3017 10.9325 25.2892 11.1487 25.2642C11.3637 25.2292 11.5775 25.193 11.7925 25.1505V27.3292C11.7964 27.4171 11.7817 27.5047 11.7494 27.5865C11.7171 27.6683 11.6679 27.7423 11.605 27.8038C11.5421 27.8653 11.467 27.9128 11.3845 27.9432C11.302 27.9737 11.214 27.9864 11.1263 27.9805H11.0487C8.1338 27.0388 5.65083 25.0873 4.04696 22.4775C2.44309 19.8676 1.82371 16.7709 2.30035 13.7449C2.777 10.719 4.31834 7.96259 6.64684 5.97216C8.97533 3.98174 11.938 2.88805 15.0013 2.88805C18.0645 2.88805 21.0272 3.98174 23.3557 5.97216C25.6842 7.96259 27.2255 10.719 27.7021 13.7449C28.1788 16.7709 27.5594 19.8676 25.9555 22.4775C24.3517 25.0873 21.8687 27.0388 18.9538 27.9805V27.9867V27.9855Z" fill="white"/>
</svg>

<svg width="30" height="31" fill="none" xmlns="http://www.w3.org/2000/svg"><path d="M15 .757a15 15 0 100 30 15 15 0 000-30zm3.954 27.229h-.117a.642.642 0 01-.477-.175.644.644 0 01-.175-.465v-1.758c.008-.584.013-1.175.013-1.77a4.613 4.613 0 00-.19-1.285 2.289 2.289 0 00-.677-1.094 10.015 10.015 0 002.548-.588 5.063 5.063 0 001.832-1.206 4.791 4.791 0 001.107-1.882c.266-.862.392-1.76.374-2.663a5.172 5.172 0 00-.325-1.845 4.865 4.865 0 00-.993-1.605c.093-.234.161-.478.202-.727.041-.25.063-.502.063-.755 0-.325-.038-.65-.113-.966a6.641 6.641 0 00-.276-.954.366.366 0 00-.139-.025h-.137c-.288.002-.57.05-.843.139a6.51 6.51 0 00-.878.325c-.284.127-.56.27-.827.428-.268.16-.506.312-.716.453a11.972 11.972 0 00-6.429 0 16.932 16.932 0 00-.715-.453 7.518 7.518 0 00-.84-.427 5.643 5.643 0 00-.881-.326 2.754 2.754 0 00-.828-.139H8.38a.363.363 0 00-.138.025c-.117.311-.213.63-.287.954-.067.317-.1.641-.101.966 0 .253.021.505.064.755.04.249.107.492.2.727a4.86 4.86 0 00-.99 1.607 5.177 5.177 0 00-.33 1.845 8.589 8.589 0 00.366 2.65 5.11 5.11 0 001.105 1.895 5.22 5.22 0 001.832 1.205 9.657 9.657 0 002.541.595c-.242.22-.435.49-.564.791-.124.298-.208.61-.25.93-.46.22-.96.335-1.47.338a2.235 2.235 0 01-1.33-.375 3.631 3.631 0 01-.94-1.03 3.867 3.867 0 00-.365-.478 3.366 3.366 0 00-.465-.429 2.303 2.303 0 00-.54-.3 1.5 1.5 0 00-.602-.126c-.05.001-.1.006-.15.012a.804.804 0 00-.202.025.51.51 0 00-.163.076.144.144 0 00-.075.125.413.413 0 00.175.302c.117.093.213.164.29.214l.038.026c.166.129.326.268.477.416.14.123.266.262.375.413.113.149.21.307.289.476.091.167.188.36.289.579a2.985 2.985 0 001.192 1.431 3.703 3.703 0 001.845.439c.218 0 .436-.013.653-.038.215-.035.429-.071.644-.113v2.178a.625.625 0 01-.667.651h-.077a12.858 12.858 0 117.905 0v.007-.002z" fill="#fff"/></svg>
